X: 1727
T: The Mountain Belle Schottische
C:Charles Kinkel, Published 1854
B: australian traditional tunes wiki
M:4/4
L:1/8
R: Schottische
Q: 1/4=100
K:D
V:1 
((3ABc)|"D"d2 F2A2((3ABA)|"A7"G2C2E2 e>f|"Em"g>f e>d "A7"c>B A>G|"D"((3FG^G) A>B "A7"A2 ((3ABc)|
"D"d2 F2A2 ((3ABA)|"A7"G2C2E2 e>f|"Em" g>f e>d "A7"c>A B>c|"D"d2d2d2 A>G||
"D"F2A2d2e2|"A7"d2c>Bc2E>F|"G"G2B2B2c2|"A7"B2A>G A>G F>G|
"D"A2d2d2e2|"A7"d2c>Bc4|"A7"E2c>BG2c>B|"D"((3AGF)D2D4||
% abcbook-tune_id 6342d53af3d70bd416f2593e


% abcbook-boost 0
% abcbook-tablature 
% abcbook-transpose 
% abcbook-lastupdated 1665324380346
% abcbook-soundfonts 
% abcbook-repeats 1
% NFF Book 2015

